src/assets/images/icons/spam-line.svg

<svg xmlns="http://www.w3.org/2000/svg" width="24" height="24" fill="none" viewBox="0 0 24 24"><g clip-path="url(#a)"><path fill="#181d27" d="M17.5 2.5 23 12l-5.5 9.5h-11L1 12l5.5-9.5zm-1.153 2H7.653L3.311 12l4.342 7.5h8.694l4.342-7.5zM11 15h2v2h-2zm0-8h2v6h-2z"/></g><defs><clipPath id="a"><path fill="#fff" d="M0 0h24v24H0z"/></clipPath></defs></svg>

<svg width="24" height="24" viewBox="0 0 24 24" fill="none" xmlns="http://www.w3.org/2000/svg">
<g clip-path="url(#clip0_58_16320)">
<path d="M17.5 2.5L23 12L17.5 21.5H6.5L1 12L6.5 2.5H17.5ZM16.347 4.5H7.653L3.311 12L7.653 19.5H16.347L20.689 12L16.347 4.5ZM11 15H13V17H11V15ZM11 7H13V13H11V7Z" fill="#181D27"/>
</g>
<defs>
<clipPath id="clip0_58_16320">
<rect width="24" height="24" fill="white"/>
</clipPath>
</defs>
</svg>
